src/topics/icons/rackspace.svg

<svg height="263" preserveAspectRatio="xMidYMid" viewBox="0 0 256 263" width="256" xmlns="http://www.w3.org/2000/svg"><path d="m146.722268.23227868c58.456693-3.55906923 104.818897 34.39369272 108.251797 93.16561642 3.873977 66.8660709-49.385827 135.4015039-119.023955 153.1336369-24.094478 6.078786-46.6456348 5.385885-66.2365125-.786948-1.417345-26.393721 3.7165233-53.889815 15.0236119-73.102312 18.4252276-31.307051 46.3306626-28.629879 62.2991926 5.952746 6.015766 13.007864 9.480273 28.692899 10.488147 44.850426 5.574817-2.960667 10.99218-6.299261 16.157526-9.889744-17.259834-41.88976-24.97644-91.496255 36.881868-178.6139818-17.984214-14.3936665-45.637826-21.3858288-80.157753-16.9448618 5.102455-5.9527458 10.519689-11.90549161 16.314981-17.76373917z"/><path d="m132.486249 71.1608078c-5.007957 10.5197536-2.992209 19.1811487 4.47238 19.3386028 7.433111.1257827 17.543265-8.3149445 22.551222-18.8661115 5.007827-10.519689 3.023622-19.1811487-4.440967-19.3386028-7.464525-.1257827-17.574808 8.3149445-22.582635 18.8661115zm-5.070913-29.8582274c-52.2835368 64.0945306-74.4878561 147.3386026-71.3697357 221.5748936-30.866166-12.34644-53.48040773-42.110234-55.84254191-79.842328v-.441207c-3.90551987-66.929285 49.48026051-135.4956799 119.21230661-153.1652433 27.086686-6.8346437 52.661401-5.0078277 74.015687 3.7165878-4.440902 12.6614133-11.874014 27.1496426-19.244104 38.0786737-15.433019 22.9291499-37.606247 37.3858368-49.511739 32.3150538-11.874078-5.1024554-9.00791-27.8425444 6.456651-50.8031723 3.559004-5.2913224 7.496002-10.1417605 11.590583-14.393731-5.03937.6926433-10.141825 1.6692974-15.307107 2.9606662z" fill="#b80017"/></svg>

<?xml version="1.0" encoding="UTF-8" standalone="no"?>
<svg width="256px" height="263px" viewBox="0 0 256 263" version="1.1" xmlns="http://www.w3.org/2000/svg" xmlns:xlink="http://www.w3.org/1999/xlink" preserveAspectRatio="xMidYMid">
	<g>
		<path d="M146.722268,0.232278677 C205.178961,-3.32679055 251.541165,34.6259714 254.974065,93.3978951 C258.848042,160.263966 205.588238,228.799399 135.95011,246.531532 C111.855632,252.610318 89.3044752,251.917417 69.7135975,245.744584 C68.2962525,219.350863 73.4301208,191.854769 84.7372094,172.642272 C103.162437,141.335221 131.067872,144.012393 147.036402,178.595018 C153.052168,191.602882 156.516675,207.287917 157.524549,223.445444 C163.099366,220.484777 168.516729,217.146183 173.682075,213.5557 C156.422241,171.66594 148.705635,122.059445 210.563943,34.9417182 C192.579729,20.5480517 164.926117,13.5558894 130.40619,17.9968564 C135.508645,12.0441106 140.925879,6.09136479 146.721171,0.233117228 L146.722268,0.232278677 Z" fill="#000000"></path>
		<path d="M132.486249,71.1608078 C127.478292,81.6805614 129.49404,90.3419565 136.958629,90.4994106 C144.39174,90.6251933 154.501894,82.1844661 159.509851,71.6332991 C164.517678,61.1136101 162.533473,52.4521504 155.068884,52.2946963 C147.604359,52.1689136 137.494076,60.6096408 132.486249,71.1608078 L132.486249,71.1608078 Z M127.415336,41.3025804 C75.1317992,105.397111 52.9274799,188.641183 56.0456003,262.877474 C25.1794343,250.531034 2.56519257,220.76724 0.203058394,183.035146 L0.203058394,182.593939 C-3.70246148,115.664654 49.6833189,47.0982591 119.415365,29.4286957 C146.502051,22.594052 172.076766,24.420868 193.431052,33.1452835 C188.99015,45.8066968 181.557038,60.2949261 174.186948,71.2239572 C158.753929,94.1531071 136.580701,108.609794 124.675209,103.539011 C112.801131,98.4365556 115.667299,75.6964666 131.13186,52.7358387 C134.690864,47.4445163 138.627862,42.5940782 142.722443,38.3421077 C137.683073,39.034751 132.580618,40.0114051 127.415336,41.3027739 L127.415336,41.3025804 Z" fill="#B80017"></path>
	</g>
</svg>
